X:1
T:Somebody Cares
T:Somebody Cares
T:Homer Alvan Rodeheaver
T:Fannie Edna Stafford, 1905
T:Public Domain Courtesy of the Cyber Hymnal™
T:Public Domain Courtesy of the Cyber Hymnal™
C:Homer Alvan Rodeheaver
Z:Public Domain
Z:Courtesy of the Cyber Hymnal™
%%score ( 1 2 ) ( 3 4 )
L:1/8
Q:1/4=107
M:6/8
K:G
V:1 treble 
V:2 treble 
V:3 bass 
V:4 bass 
V:1
 [GB][Gd][GB] [EA][EG]E | [DG]3 [DG]2 (D/D/) | [EG]>[^DF][EG] [FA][EG][FA] | [GB]3- [GB]2 z | %4
w: 1.~Some- bod- y knows when your|heart aches, And *|ev- ery- thing seems to go|wrong; *|
w: 2.~Some- bod- y cares when you’re|tempt- ed, And *|your mind grows diz- zy and|dim; *|
w: 3.~Some- bod- y loves you when|wear- y; ~ *|Some- bod- y loves you when|strong; *|
 [GB][Gd][GB] [EA][EG]E | [DG]3 [DG]2 [GB] | [FA][DA][FA] ([G^c][GB])[GA] | [Fd]3- [Fd]2 z | %8
w: Some- bod- y knows when the|sha- dows Need|chas- ing a- way~with * a|song; *|
w: Some- bod- y cares when you’re|weak- est, And|farth- est a- way * from|Him; *|
w: Al- ways is wait- ing to|help you, He|watch- es you— one~of * the|throng *|
 [Gd][Ge][Gd] [Fc][Fd][Dc] | B3 [FA]3 | [DG][DG][DG] [G_B][GB]G | [GB]3- [GB]2 z | %12
w: Some- bod- y knows when you’re|lone- ly,|Tir- ed, dis- cour- aged and|blue; *|
w: Some- bod- y grieves when you’re|fall- en,|You are not lost from His|sight; *|
w: Need- ing His friend- ship so|ho- ly,|Need- ing His watch- care so|true; *|
 [Gc][Gc][Gc] [Gc][Gd][Ge] | [Gd]3 [GB]2 [Gc] | [Gd]G[Gc] [GB]>[DG][DA] | [DG]3- [DG]2 z |] %16
w: Some- bod- y wants you to|know Him, And|know that He dear- ly loves|you. *|
w: Some- bod- y waits for your|com- ing, And|He’ll drive the gloom from your|night. *|
w: His name? We call His name|Je- sus; He|loves ev- ery- one, He loves|you. *|
V:2
 x5 E | x5 D/D/ | x6 | x6 | x5 E | x6 | x6 | x6 | x6 | (D2 G) x3 | x5 G | x6 | x6 | x6 | x G x4 | %15
 x6 |] %16
V:3
 [G,D][G,B,][G,D] [G,C][G,C][G,C] | [G,B,]3 [G,B,]2 ([G,B,]/[G,B,]/) | %2
 [E,B,]>[E,B,][E,B,] [D,D][D,D][D,D] | [G,D]3- [G,D]2 z | [G,D][G,B,][G,D] [G,C][G,C][G,C] | %5
 [G,B,]3 [G,B,]2 [G,D] | [A,D][F,D][D,D] [A,,E][A,,D][A,^C] | [D,D]3- [D,D]2 z | %8
 [D,B,][D,C][D,B,] [D,A,][D,B,][D,A,] | G,2 B, (D2 C) | [G,B,][G,B,][G,B,] [G,^C][G,C][G,C] | %11
 [G,D]3- [G,D]2 z | [E,C][E,C][E,C] [E,C][G,B,]C | [G,B,]3 [G,D]2 [E,C] | %14
 [D,B,][D,B,][C,E] [D,D]>[D,B,][D,C] | [G,,B,]3- [G,,B,]2 z |] %16
V:4
 x6 | x6 | x6 | x6 | x6 | x6 | x6 | x6 | x6 | D,3 D,3 | x6 | x6 | x5 C | x6 | x6 | x6 |] %16

